X: 2
T: Lady Madelina Sinclair's Birthday
M: 4/4
L: 1/8
R: strathspey
K: Bb Major, transposed up from G
|: A |
B2 F>B D>BF>B | B2 d>B A<cc<d |
B2 F>B D>BF>B | (3ABc c>e d<BB :|
|: f |
(3BBB d>B f>Bd<b | B2 (3dcB A<cc<d |
[1 (3BBB d>B f>Bd<B | (3ABc (3cde d<BB :|
[2 B>dc>e d>fe>g | (3f^ef (3bf=e d<BB |]
